src/shared/assets/icons/home-category/ic-wellbeing.svg

<svg width="100%" height="100%" viewBox="0 0 120 120" fill="none" xmlns="http://www.w3.org/2000/svg">
<mask id="mask0_68_50562" style="mask-type:luminance" maskUnits="userSpaceOnUse" x="0" y="0" width="120" height="120">
<path d="M120 0H0V120H120V0Z" fill="white"/>
</mask>
<g mask="url(#mask0_68_50562)">
<path d="M51.34 27.4298C55.5859 22.9042 57.7088 20.6414 60.2038 19.8406C62.2151 19.1951 64.378 19.1951 66.3892 19.8406C68.8842 20.6414 71.0072 22.9042 75.2531 27.4298L94.36 47.795C102.709 56.6937 106.883 61.143 107.009 64.9534C107.108 67.9807 105.847 70.8936 103.571 72.8921C100.706 75.4074 94.6051 75.4074 82.4031 75.4074H44.19C31.9881 75.4074 25.887 75.4074 23.0222 72.8921C20.746 70.8936 19.4848 67.9807 19.5846 64.9534C19.7104 61.143 23.8847 56.6937 32.2335 47.795L51.34 27.4298Z" fill="#FF7CCA"/>
<foreignObject x="13.7391" y="39.7371" width="98.2005" height="81.9154"><div xmlns="http://www.w3.org/1999/xhtml" style="backdrop-filter:blur(6.53px);clip-path:url(#bgblur_0_68_50562_clip_path);height:100%;width:100%"></div></foreignObject><path data-figma-bg-blur-radius="13.0568" d="M82.052 53.0996H43.6266C34.5001 53.0996 27.1016 60.4981 27.1016 69.6246V91.7644C27.1016 100.891 34.5001 108.289 43.6266 108.289H82.052C91.1786 108.289 98.5771 100.891 98.5771 91.7644V69.6246C98.5771 60.4981 91.1786 53.0996 82.052 53.0996Z" fill="#FF7CCA" fill-opacity="0.6" stroke="url(#paint0_linear_68_50562)" stroke-width="0.611895"/>
<foreignObject x="29.5275" y="59.7804" width="67.5387" height="62.4792"><div xmlns="http://www.w3.org/1999/xhtml" style="backdrop-filter:blur(11.81px);clip-path:url(#bgblur_1_68_50562_clip_path);height:100%;width:100%"></div></foreignObject><path data-figma-bg-blur-radius="23.6141" d="M65.8266 98.4005C69.9027 98.4005 73.207 95.0962 73.207 91.0201C73.207 86.944 69.9027 83.6396 65.8266 83.6396H60.7664C56.6903 83.6396 53.3859 86.944 53.3859 91.0201C53.3859 95.0962 56.6903 98.4005 60.7664 98.4005H65.8266Z" fill="url(#paint1_linear_68_50562)" stroke="url(#paint2_linear_68_50562)" stroke-width="0.489516"/>
</g>
<defs>
<clipPath id="bgblur_0_68_50562_clip_path" transform="translate(-13.7391 -39.7371)"><path d="M82.052 53.0996H43.6266C34.5001 53.0996 27.1016 60.4981 27.1016 69.6246V91.7644C27.1016 100.891 34.5001 108.289 43.6266 108.289H82.052C91.1786 108.289 98.5771 100.891 98.5771 91.7644V69.6246C98.5771 60.4981 91.1786 53.0996 82.052 53.0996Z"/>
</clipPath><clipPath id="bgblur_1_68_50562_clip_path" transform="translate(-29.5275 -59.7804)"><path d="M65.8266 98.4005C69.9027 98.4005 73.207 95.0962 73.207 91.0201C73.207 86.944 69.9027 83.6396 65.8266 83.6396H60.7664C56.6903 83.6396 53.3859 86.944 53.3859 91.0201C53.3859 95.0962 56.6903 98.4005 60.7664 98.4005H65.8266Z"/>
</clipPath><linearGradient id="paint0_linear_68_50562" x1="21.6965" y1="57.9023" x2="110.863" y2="117.399" gradientUnits="userSpaceOnUse">
<stop stop-color="white"/>
<stop offset="1" stop-color="white" stop-opacity="0"/>
</linearGradient>
<linearGradient id="paint1_linear_68_50562" x1="54.3985" y1="89.4285" x2="76.5373" y2="97.4786" gradientUnits="userSpaceOnUse">
<stop stop-color="white"/>
<stop offset="1" stop-color="white" stop-opacity="0"/>
</linearGradient>
<linearGradient id="paint2_linear_68_50562" x1="49.3671" y1="85.4033" x2="72.0089" y2="99.4911" gradientUnits="userSpaceOnUse">
<stop stop-color="white"/>
<stop offset="1" stop-color="white" stop-opacity="0"/>
</linearGradient>
</defs>
</svg>

<svg xmlns="http://www.w3.org/2000/svg" fill="none" viewBox="0 0 120 120"><mask id="a" width="120" height="120" x="0" y="0" maskUnits="userSpaceOnUse" style="mask-type:luminance"><path fill="#fff" d="M120 0H0v120h120z"/></mask><g mask="url(#a)"><path fill="#ff7cca" d="M51.34 27.43c4.246-4.526 6.369-6.789 8.864-7.59a10.12 10.12 0 0 1 6.185 0c2.495.801 4.618 3.064 8.864 7.59L94.36 47.795c8.349 8.899 12.523 13.348 12.649 17.158a10.12 10.12 0 0 1-3.438 7.94c-2.865 2.514-8.966 2.514-21.168 2.514H44.19c-12.202 0-18.303 0-21.168-2.515a10.12 10.12 0 0 1-3.437-7.939c.125-3.81 4.3-8.26 12.648-17.158z"/><foreignObject width="98.201" height="81.915" x="13.739" y="39.737"><div xmlns="http://www.w3.org/1999/xhtml" style="backdrop-filter:blur(6.53px);clip-path:url(#b);height:100%;width:100%"/></foreignObject><path fill="#ff7cca" fill-opacity=".6" stroke="url(#c)" stroke-width=".612" d="M82.052 53.1H43.627c-9.127 0-16.525 7.398-16.525 16.525v22.14c0 9.126 7.398 16.524 16.525 16.524h38.425c9.127 0 16.525-7.398 16.525-16.525v-22.14c0-9.126-7.398-16.524-16.525-16.524Z" data-figma-bg-blur-radius="13.057"/><foreignObject width="67.539" height="62.479" x="29.527" y="59.78"><div xmlns="http://www.w3.org/1999/xhtml" style="backdrop-filter:blur(11.81px);clip-path:url(#d);height:100%;width:100%"/></foreignObject><path fill="url(#e)" stroke="url(#f)" stroke-width=".49" d="M65.827 98.4a7.38 7.38 0 1 0 0-14.76h-5.06a7.38 7.38 0 0 0 0 14.76z" data-figma-bg-blur-radius="23.614"/></g><defs><linearGradient id="c" x1="21.697" x2="110.863" y1="57.902" y2="117.399" gradientUnits="userSpaceOnUse"><stop stop-color="#fff"/><stop offset="1" stop-color="#fff" stop-opacity="0"/></linearGradient><linearGradient id="e" x1="54.398" x2="76.537" y1="89.428" y2="97.479" gradientUnits="userSpaceOnUse"><stop stop-color="#fff"/><stop offset="1" stop-color="#fff" stop-opacity="0"/></linearGradient><linearGradient id="f" x1="49.367" x2="72.009" y1="85.403" y2="99.491" gradientUnits="userSpaceOnUse"><stop stop-color="#fff"/><stop offset="1" stop-color="#fff" stop-opacity="0"/></linearGradient><clipPath id="b" transform="translate(-13.74 -39.737)"><path d="M82.052 53.1H43.627c-9.127 0-16.525 7.398-16.525 16.525v22.14c0 9.126 7.398 16.524 16.525 16.524h38.425c9.127 0 16.525-7.398 16.525-16.525v-22.14c0-9.126-7.398-16.524-16.525-16.524"/></clipPath><clipPath id="d" transform="translate(-29.527 -59.78)"><path d="M65.827 98.4a7.38 7.38 0 1 0 0-14.76h-5.06a7.38 7.38 0 0 0 0 14.76z"/></clipPath></defs></svg>
